X: 42326
T: Wee Man At The Loom, The
R: polka
M: 2/4
K: Amixolydian
|:B|A<e A<f|ec A<f|A<a A>B|cB BA|
A<e A<f|ec A<f|ea e/f/e/d/|cA A/A/:|
|:c/d/|ef f/e/d/c/|dB Bd|ce d/c/B/A/|GB e>d|
ce d/c/B/A/|df a>e|f>d Bc|cA A/A/:|

